public/assets/standards/soft/feedback-icon.svg

<svg width="32" height="32" viewBox="0 0 32 32" fill="none" xmlns="http://www.w3.org/2000/svg">
<path d="M31.86 17.0799C31.86 10.5099 26.54 5.18994 19.97 5.18994C13.4 5.18994 8.07996 10.5099 8.07996 17.0799C8.07996 23.6499 13.4 28.9699 19.97 28.9699C20.43 28.9699 20.89 28.9399 21.34 28.8899C22.62 30.7199 25.03 31.5099 27.2 30.6599C27.42 30.5699 27.64 30.4699 27.84 30.3599C27.15 29.8299 26.59 29.1099 26.25 28.2399C26.13 27.9399 26.05 27.6399 25.99 27.3399C29.5 25.2699 31.86 21.4599 31.86 17.0899V17.0799Z" fill="#006D68"/>
<path d="M0.140015 12.87C0.140015 6.31 5.46001 1 12.01 1C18.57 1 23.88 6.32 23.88 12.87C23.88 19.43 18.56 24.74 12.01 24.74C11.55 24.74 11.09 24.71 10.65 24.66C9.37001 26.49 6.97002 27.27 4.80001 26.43C4.58002 26.34 4.36001 26.24 4.16001 26.13C4.85001 25.6 5.41001 24.88 5.75001 24.01C5.87001 23.71 5.95002 23.41 6.01002 23.11C2.50002 21.04 0.140015 17.23 0.140015 12.87Z" fill="#A5C352"/>
</svg>

<svg xmlns="http://www.w3.org/2000/svg" width="32" height="32" fill="none" viewBox="0 0 32 32"><path fill="#006d68" d="M31.86 17.08c0-6.57-5.32-11.89-11.89-11.89S8.08 10.51 8.08 17.08s5.32 11.89 11.89 11.89c.46 0 .92-.03 1.37-.08a4.954 4.954 0 0 0 5.86 1.77c.22-.09.44-.19.64-.3a4.93 4.93 0 0 1-1.59-2.12c-.12-.3-.2-.6-.26-.9 3.51-2.07 5.87-5.88 5.87-10.25z"/><path fill="#a5c352" d="M.14 12.87C.14 6.31 5.46 1 12.01 1c6.56 0 11.87 5.32 11.87 11.87 0 6.56-5.32 11.87-11.87 11.87-.46 0-.92-.03-1.36-.08a4.95 4.95 0 0 1-5.85 1.77c-.22-.09-.44-.19-.64-.3.69-.53 1.25-1.25 1.59-2.12.12-.3.2-.6.26-.9C2.5 21.04.14 17.23.14 12.87"/></svg>
